dist/intermediate-svg/budget.svg

<?xml version="1.0" encoding="utf-8"?><svg width="24" height="23.04" fill="none" xmlns="http://www.w3.org/2000/svg" viewBox="0 0 25 24"><path d="M5.83814 11.5001L4.77596 12.036L5.83814 14.0001M13.8381 16.0001L8.77596 18.9642L6.83813 16.0001M12.3381 8.0001L16.9003 5.03599L18.8381 8.0001M19.8381 12.6876L20.9003 11.9642L19.8381 10.0001" stroke="#333"/><path stroke="#333" d="M5.838 8H19.838V16H5.838z"/><path d="M13.0936 13.4671H12.22V14.0001H11.3958V13.4671H10.8381V12.7995H11.3958V12.5908H10.8381V11.9232H11.3958V10.0001H12.9508C13.2511 10.0001 13.5149 10.0541 13.742 10.1622C13.9691 10.2702 14.1449 10.425 14.2695 10.6265C14.3958 10.8261 14.459 11.0541 14.459 11.3105C14.459 11.7061 14.3244 12.0184 14.0552 12.2474C13.7878 12.4763 13.4151 12.5908 12.937 12.5908H12.22V12.7995H13.0936V13.4671ZM12.22 11.9232H12.9315C13.3931 11.9232 13.6238 11.7208 13.6238 11.316C13.6238 11.1237 13.5652 10.969 13.448 10.8517C13.3308 10.7327 13.1687 10.6723 12.9618 10.6704H12.22V11.9232Z" fill="#0094FF"/></svg>

<?xml version="1.0" encoding="utf-8"?><svg width="24" height="23.04" fill="none" xmlns="http://www.w3.org/2000/svg" viewBox="0 0 25 24"><path d="M5.838 11.5l-1.062.536L5.838 14m8 2l-5.062 2.964L6.838 16m5.5-8L16.9 5.036 18.838 8m1 4.688l1.062-.724L19.838 10M5.838 8h14v8h-14z" stroke="#333"/><path d="M13.094 13.467h-.874V14h-.824v-.533h-.558V12.8h.558v-.208h-.558v-.668h.558V10h1.555c.3 0 .564.054.791.162.227.108.403.263.527.464.127.2.19.428.19.684 0 .396-.135.708-.404.937-.267.23-.64.344-1.118.344h-.717v.209h.874v.667zm-.874-1.544h.711c.462 0 .693-.202.693-.607a.628.628 0 00-.176-.464c-.117-.12-.28-.18-.486-.182h-.742v1.253z" fill="#0094FF"/></svg>
